X: 1
T: John Nee's
M: 4/4
L: 1/8
R: reel
K: Ador
|:d|eA~A2 AcBA|GEDE G2(3Bcd|eA~A2 (3Bcd eg|a2ge dged|
eA~A2 AcBA|GEDE G2(3Bcd|e3a gedB|Gd(3BAG BAA:|
|:B|~c3d eg~g2|eaaf g2ed|eA~A2 (3Bcd eg|agge dged|
~c3d eg~g2|eaaf gedB|cABA GE~E2|GABG ~A3:|
